X:1
T:Engels Pols
T:(Totakt-pols, nr. EJ-53)
S:efter Erik Jensen
R:Totakt-pols
O:Boes, rhus amt, Danmark
N:Lt nr. 1 p CD:n "Totakt-pols" av ke Persson, Ethel Wieslander m fl. Till CD:n finns ett nothfte dr den har beteckningen EJ-53. Danmark|Fler ltar frn Danmark...
M:2/4
L:1/16
K:G
|:G2GG G2GG|G4 g4|d2(Bd) c2(Ac)|B2G2F2D2|G2GG G2GG|G4 g4|d2(Bd) c2(Ac)|A4 G4:|
|:B2(dB) A4|F2F2 D4|B2(dB) A4|G4 g4|d2(Bd) c2(Ac)|A4 G4:|
|:d4 (d2B2)|e4 (e2c2)|B2d2B2G2|F2G2F2D2|d4 (d2B2)|e4 (e2c2)|B2d2F2A2|G4 G,4:|
